packages/landing-ui/public/package-truck.svg

<svg width="87" height="87" viewBox="0 0 87 87" fill="none" xmlns="http://www.w3.org/2000/svg">
<path d="M38.8078 80.198H38.7857C37.8472 80.198 37.0865 80.9587 37.0865 81.8972C37.0865 82.8357 37.8472 83.5964 38.7857 83.5964H38.8078C39.7463 83.5964 40.507 82.8357 40.507 81.8972C40.507 80.9587 39.7463 80.198 38.8078 80.198Z" fill="#F6376D"/>
<path d="M86.5023 43.3235L69.4996 26.3204C69.181 26.0018 68.7487 25.8227 68.2981 25.8227H54.0352C53.0967 25.8227 52.3359 26.5835 52.3359 27.5219V57.0883H46.6775C47.6701 55.7271 48.2578 54.0527 48.2578 52.2428V25.5706C48.2578 21.025 44.5596 17.3266 40.0139 17.3266H37.9624C39.0829 15.8668 39.751 14.0425 39.751 12.0643C39.751 7.28883 35.8659 3.40356 31.0903 3.40356C28.2402 3.40356 25.708 4.78792 24.1287 6.91891C22.5495 4.78792 20.0173 3.40356 17.1672 3.40356C12.3917 3.40356 8.50646 7.28866 8.50646 12.0643C8.50646 14.0425 9.17459 15.8668 10.2951 17.3266H8.24393C3.69818 17.3268 0 21.025 0 25.5706V52.243C0 54.0554 0.589289 55.732 1.58435 57.0943C0.699738 57.1536 0 57.888 0 58.7877V69.6627C0 70.6012 0.76074 71.3619 1.69922 71.3619H13.1003C12.7608 72.3193 12.5742 73.3483 12.5742 74.4205C12.5742 76.6086 13.3452 78.6193 14.6281 80.1979H1.69922C0.76074 80.1979 0 80.9586 0 81.8971C0 82.8356 0.76074 83.5963 1.69922 83.5963H32.2388C33.1772 83.5963 33.938 82.8356 33.938 81.8971C33.938 80.9586 33.1772 80.1979 32.2388 80.1979H28.8719C30.155 78.6193 30.9258 76.6086 30.9258 74.4205C30.9258 73.3483 30.7392 72.3193 30.3997 71.3619H57.9597C57.6202 72.3193 57.4336 73.3483 57.4336 74.4205C57.4336 76.6086 58.2045 78.6193 59.4874 80.1979H44.5761C43.6376 80.1979 42.8769 80.9586 42.8769 81.8971C42.8769 82.8356 43.6376 83.5963 44.5761 83.5963H85.3008C86.2393 83.5963 87 82.8356 87 81.8971C87 80.9586 86.2393 80.1979 85.3008 80.1979H73.7313C75.0142 78.6193 75.7852 76.6086 75.7852 74.4205C75.7852 73.3483 75.5986 72.3193 75.2591 71.3619H85.3008C86.2393 71.3619 87 70.6012 87 69.6627V58.7877V44.5248C87 44.0742 86.8209 43.6419 86.5023 43.3235ZM63.8906 29.2213H67.5941L69.1341 30.7612L63.8906 36.0046V29.2213ZM63.8906 40.8107L71.5371 33.1642L74.3777 36.0048L63.8906 46.4918V40.8107ZM40.0141 20.7251C42.6857 20.7252 44.8594 22.8989 44.8594 25.5706V32.1205H29.5664V20.7251H31.0904H40.0141ZM34.6641 46.3732C33.7256 46.3732 32.9648 47.134 32.9648 48.0725V57.0885H29.5664V35.519H44.8594V52.243C44.8594 54.9149 42.6857 57.0885 40.0139 57.0885H36.3633V48.0725C36.3633 47.134 35.6025 46.3732 34.6641 46.3732ZM25.8281 12.0645C25.8281 9.1629 28.1888 6.80217 31.0904 6.80217C33.992 6.80217 36.3527 9.16307 36.3527 12.0645C36.3527 14.9659 33.992 17.3268 31.0904 17.3268H27.8672H25.8281V12.0645ZM22.7695 20.7252H24.1289H26.168V32.1207H22.7695V20.7252ZM22.7695 35.519H26.168V57.0885H22.7695V35.519ZM17.1675 6.80234C20.0691 6.80234 22.4297 9.16307 22.4297 12.0645V17.3268H21.0703H17.1674C14.2658 17.3268 11.9052 14.9661 11.9052 12.0645C11.9052 9.1629 14.266 6.80234 17.1675 6.80234ZM3.39844 25.5707C3.39844 22.8989 5.57208 20.7252 8.24393 20.7252H17.1675H19.3711V32.1207H3.39844V25.5707ZM3.39844 35.519H19.3711V57.0885H8.24393C5.57208 57.0885 3.39844 54.9149 3.39844 52.243V35.519ZM21.75 80.1979C18.5643 80.1979 15.9727 77.6061 15.9727 74.4205C15.9727 71.2348 18.5643 68.6432 21.75 68.6432C24.9357 68.6432 27.5273 71.2348 27.5273 74.4205C27.5273 77.6062 24.9357 80.1979 21.75 80.1979ZM66.6126 80.1977H66.6061C63.422 80.196 60.832 77.605 60.832 74.4204C60.832 71.2347 63.4237 68.643 66.6094 68.643C69.7951 68.643 72.3867 71.2347 72.3867 74.4204C72.3867 77.6049 69.7968 80.1958 66.6126 80.1977ZM83.6016 67.9635H73.123C73.1225 67.9635 73.1221 67.9635 73.1216 67.9635C71.4579 66.2857 69.1533 65.2448 66.6094 65.2448C64.0507 65.2448 61.7345 66.2984 60.0686 67.9936C59.967 67.9747 59.8628 67.9635 59.7557 67.9635H28.2621C26.5984 66.2859 24.2937 65.2448 21.75 65.2448C19.2036 65.2448 16.8967 66.2881 15.2326 67.9691C15.1963 67.9667 15.1601 67.9635 15.123 67.9635H3.39844V60.4869H83.6016V67.9635ZM83.6016 57.0885H55.7344V29.2213H60.4922V50.6315C60.4922 51.57 61.2529 52.3307 62.1914 52.3307H83.6016V57.0885ZM83.6016 48.9323H66.2566L76.7809 38.408L83.6016 45.2286V48.9323Z" fill="#687C94"/>
<path d="M34.6641 39.6768C33.7256 39.6768 32.9648 40.4375 32.9648 41.376V41.3998C32.9648 42.3382 33.7256 43.099 34.6641 43.099C35.6025 43.099 36.3633 42.3382 36.3633 41.3998V41.376C36.3633 40.4375 35.6025 39.6768 34.6641 39.6768Z" fill="#F6376D"/>
</svg>

<svg width="87" height="87" fill="none" xmlns="http://www.w3.org/2000/svg"><path d="M38.808 80.198h-.022a1.7 1.7 0 100 3.398h.022a1.7 1.7 0 100-3.398z" fill="#F6376D"/><path d="M86.502 43.324L69.5 26.32a1.7 1.7 0 00-1.202-.497H54.035a1.7 1.7 0 00-1.7 1.699v29.566h-5.657a8.197 8.197 0 001.58-4.845V25.57c0-4.546-3.698-8.244-8.244-8.244h-2.052a8.615 8.615 0 001.789-5.263c0-4.775-3.885-8.66-8.66-8.66a8.653 8.653 0 00-6.962 3.515 8.653 8.653 0 00-6.962-3.515c-4.775 0-8.66 3.885-8.66 8.66 0 1.979.668 3.803 1.788 5.263H8.244C3.698 17.327 0 21.025 0 25.57v26.672c0 1.812.59 3.489 1.584 4.851A1.698 1.698 0 000 58.788v10.875c0 .938.76 1.699 1.7 1.699h11.4a9.133 9.133 0 00-.526 3.059c0 2.188.771 4.198 2.054 5.777H1.7a1.7 1.7 0 100 3.398h30.54a1.7 1.7 0 100-3.398h-3.367a9.13 9.13 0 002.054-5.777 9.133 9.133 0 00-.526-3.06h27.56a9.133 9.133 0 00-.526 3.06c0 2.188.77 4.198 2.053 5.777h-14.91a1.7 1.7 0 100 3.398H85.3a1.7 1.7 0 100-3.398H73.73a9.132 9.132 0 002.054-5.777 9.133 9.133 0 00-.526-3.06h10.042A1.7 1.7 0 0087 69.664V44.525c0-.45-.18-.883-.498-1.201zM63.891 29.22h3.703l1.54 1.54-5.243 5.244V29.22zm0 11.59l7.646-7.647 2.84 2.84-10.486 10.488V40.81zM40.014 20.725a4.851 4.851 0 014.845 4.846v6.55H29.566V20.724h10.448zm-5.35 25.648a1.7 1.7 0 00-1.7 1.7v9.016h-3.398v-21.57H44.86v16.724a4.85 4.85 0 01-4.845 4.846h-3.65v-9.017a1.7 1.7 0 00-1.7-1.699zm-8.836-34.308a5.268 5.268 0 015.262-5.263 5.268 5.268 0 015.263 5.263 5.268 5.268 0 01-5.263 5.262H25.828v-5.263zm-3.058 8.66h3.398v11.396H22.77V20.725zm0 14.794h3.398v21.57H22.77v-21.57zM17.168 6.802a5.268 5.268 0 015.262 5.263v5.262h-5.263a5.268 5.268 0 01-5.262-5.263 5.268 5.268 0 015.263-5.262zM3.398 25.571a4.851 4.851 0 014.846-4.846H19.37v11.396H3.398v-6.55zm0 9.948h15.973v21.57H8.244a4.85 4.85 0 01-4.846-4.846V35.519zM21.75 80.198a5.784 5.784 0 01-5.777-5.777 5.784 5.784 0 015.777-5.778 5.784 5.784 0 015.777 5.778 5.784 5.784 0 01-5.777 5.777zm44.863 0h-.007a5.784 5.784 0 01-5.774-5.778 5.784 5.784 0 015.777-5.777 5.784 5.784 0 015.778 5.777 5.784 5.784 0 01-5.774 5.778zm16.989-12.234H73.123h-.001a9.147 9.147 0 00-6.513-2.72 9.146 9.146 0 00-6.54 2.75 1.707 1.707 0 00-.313-.03H28.262a9.148 9.148 0 00-6.512-2.72 9.147 9.147 0 00-6.517 2.725c-.037-.002-.073-.005-.11-.005H3.398v-7.477h80.204v7.476zm0-10.875H55.734V29.22h4.758v21.41c0 .939.76 1.7 1.7 1.7h21.41v4.758zm0-8.157H66.257L76.78 38.408l6.82 6.82v3.704z" fill="#687C94"/><path d="M34.664 39.677a1.7 1.7 0 00-1.7 1.699v.024a1.7 1.7 0 003.4 0v-.024a1.7 1.7 0 00-1.7-1.7z" fill="#F6376D"/></svg>
